24x24/apps/fs-uae-launcher.svg

<svg height="24" width="24" xmlns="http://www.w3.org/2000/svg"><rect height="20" opacity=".2" rx="1" width="20" x="2" y="2.5"/><rect fill="#762276" height="20" rx="1" width="20" x="2" y="2"/><path d="m20.507 15s-2-.267-2 1c0 1.268 2 .733 2 2 0 1.268-2 1-2 1" fill="none" opacity=".2" stroke="#000" stroke-linecap="round" stroke-linejoin="round"/><path d="m18.442 5.5-7.41 11.59-1.662-2.59h-2.37l3.196 5 1.695-.009 8.905-13.991z" opacity=".2"/><path d="m16.515 17h-1m1.5-2c-1.694 0-1.5.5-1.5 4" fill="none" opacity=".2" stroke="#000" stroke-linecap="round" stroke-linejoin="round"/><path d="m18.442 5-7.41 11.59-1.662-2.59h-2.37l3.196 5 1.695-.009 8.905-13.991z" fill="#ff8118"/><path d="m15.442 5.5-7.41 11.59-1.662-2.59h-2.37l3.196 5 1.695-.009 8.905-13.991z" opacity=".2"/><path d="m15.442 5-7.41 11.59-1.662-2.59h-2.37l3.196 5 1.695-.009 8.905-13.991z" fill="#abe619"/><path d="m3 2c-.554 0-1 .446-1 1v.5c0-.554.446-1 1-1h18c.554 0 1 .446 1 1v-.5c0-.554-.446-1-1-1z" fill="#f4f4f7" opacity=".1"/><path d="m20.507 14.5s-2-.268-2 1 2 .732 2 2-2 1-2 1m-1.992-2h-1m1.5-2c-1.694 0-1.5.5-1.5 4" fill="none" stroke="#f4f4f7" stroke-linecap="round" stroke-linejoin="round"/></svg>

<svg height="24" width="24" xmlns="http://www.w3.org/2000/svg">
    <rect height="20" opacity=".2" rx="1" width="20" x="2" y="2.5"/>
    <rect fill="#762276" height="20" rx="1" width="20" x="2" y="2"/>
    <path d="M20.507 15s-2-.267-2 1c0 1.268 2 .733 2 2 0 1.268-2 1-2 1" fill="none" opacity=".2" stroke="#000" stroke-linecap="round" stroke-linejoin="round"/>
    <path d="m18.442 5.5-7.41 11.59L9.37 14.5H7l3.196 5 1.695-.009L20.796 5.5z" opacity=".2"/>
    <path d="M16.515 17h-1m1.5-2c-1.694 0-1.5.5-1.5 4" fill="none" opacity=".2" stroke="#000" stroke-linecap="round" stroke-linejoin="round"/>
    <path d="m18.442 5-7.41 11.59L9.37 14H7l3.196 5 1.695-.009L20.796 5z" fill="#ff8118"/>
    <path d="m15.442 5.5-7.41 11.59L6.37 14.5H4l3.196 5 1.695-.009L17.796 5.5z" opacity=".2"/>
    <path d="m15.442 5-7.41 11.59L6.37 14H4l3.196 5 1.695-.009L17.796 5z" fill="#abe619"/>
    <path d="M3 2c-.554 0-1 .446-1 1v.5c0-.554.446-1 1-1h18c.554 0 1 .446 1 1V3c0-.554-.446-1-1-1z" fill="#f4f4f7" opacity=".1"/>
    <path d="M20.507 14.5s-2-.268-2 1 2 .732 2 2-2 1-2 1m-1.992-2h-1m1.5-2c-1.694 0-1.5.5-1.5 4" fill="none" stroke="#f4f4f7" stroke-linecap="round" stroke-linejoin="round"/>
</svg>
